Icons/rename_me_aldiko.svg

<svg viewBox="0 0 48 48" xmlns:xlink="http://www.w3.org/1999/xlink">
 <defs>
  <linearGradient id="0">
   <stop stop-opacity="0"/>
   <stop offset="1"/>
  </linearGradient>
  <linearGradient xlink:href="#0" id="1" gradientUnits="userSpaceOnUse" gradientTransform="translate(4e-7,-48)" y1="47" x2="0" y2="1"/>
  <clipPath id="2">
   <g transform="translate(0,-1004.3622)">
    <rect rx="4" y="1005.36" x="1" height="46" width="46" fill="#1890d0"/>
   </g>
  </clipPath>
  <clipPath id="3">
   <g transform="translate(0,-1004.3622)">
    <rect rx="4" y="1005.36" x="1" height="46" width="46" fill="#1890d0"/>
   </g>
  </clipPath>
 </defs>
 <g>
  <g transform="translate(0,-1004.3622)">
   <path d="m 5,1006.3622 c -2.216,0 -4,1.784 -4,4 l 0,37.25 c 0,2.216 1.784,4 4,4 l 38,0 c 2.216,0 4,-1.784 4,-4 l 0,-37.25 c 0,-2.216 -1.784,-4 -4,-4 l -38,0 z m -4,41.5 0,0.5 c 0,2.216 1.784,4 4,4 l 38,0 c 2.216,0 4,-1.784 4,-4 l 0,-0.5 c 0,2.216 -1.784,4 -4,4 l -38,0 c -2.216,0 -4,-1.784 -4,-4 z" opacity="0.02"/>
   <path d="m 1,1047.6122 0,0.25 c 0,2.216 1.784,4 4,4 l 38,0 c 2.216,0 4,-1.784 4,-4 l 0,-0.25 c 0,2.216 -1.784,4 -4,4 l -38,0 c -2.216,0 -4,-1.784 -4,-4 z" opacity="0.05"/>
   <rect width="46" height="46" x="1" y="1005.61" rx="4" opacity="0.1"/>
  </g>
 </g>
 <g>
  <g transform="translate(0,-1004.3622)">
   <rect rx="4" y="1005.36" x="1" height="46" width="46" fill="#946b7b"/>
  </g>
 </g>
 <g>
  <rect transform="scale(1,-1)" width="46" height="46" x="1" y="-46.998" rx="4" opacity="0.1" fill="url(#1)"/>
 </g>
 <g>
  <g clip-path="url(#2)">
   <g opacity="0.1">
    <g>
     <path d="M 11.6875 8 C 10.75 8 10 8.75 10 9.6875 L 10 15 L 18 15 L 18 9.6875 C 18 8.75 17.25 8 16.3125 8 Z M 10 16 L 10 32 L 18 32 L 18 16 Z M 10 33 L 10 38.3125 C 10 39.25 10.75 40 11.6875 40 L 16.3125 40 C 17.25 40 18 39.25 18 38.3125 L 18 33 Z M 10 33 "/>
     <path d="M 20.996094 17.996094 L 24 17.996094 C 24.550781 17.996094 24.996094 18.445312 24.996094 18.996094 L 24.996094 38.996094 C 24.996094 39.550781 24.550781 39.996094 24 39.996094 L 20.996094 39.996094 C 20.445312 39.996094 20 39.550781 20 38.996094 L 20 18.996094 C 20 18.445312 20.445312 17.996094 20.996094 17.996094 Z M 20.996094 17.996094 "/>
     <path d="M 24.5 14.132812 C 26.589844 14.925781 27.484375 13.828125 27.484375 13.828125 L 30.125 39.695312 C 28.03125 38.902344 27.140625 40 27.140625 40 Z M 24.5 14.132812 "/>
     <path d="M 28 20.667969 C 30.640625 18.925781 33.796875 19.113281 33.796875 19.113281 L 38.972656 38.433594 C 38.972656 38.433594 36.332031 40.175781 33.175781 39.984375 Z M 28 20.667969 "/>
    </g>
   </g>
  </g>
 </g>
 <g>
  <g clip-path="url(#3)">
   <g transform="translate(0,-1)">
    <g>
     <path d="M 11.6875 8 C 10.75 8 10 8.75 10 9.6875 L 10 15 L 18 15 L 18 9.6875 C 18 8.75 17.25 8 16.3125 8 Z M 10 16 L 10 32 L 18 32 L 18 16 Z M 10 33 L 10 38.3125 C 10 39.25 10.75 40 11.6875 40 L 16.3125 40 C 17.25 40 18 39.25 18 38.3125 L 18 33 Z M 10 33 " fill="#fff472"/>
     <path d="M 20.996094 17.996094 L 24 17.996094 C 24.550781 17.996094 24.996094 18.445312 24.996094 18.996094 L 24.996094 38.996094 C 24.996094 39.550781 24.550781 39.996094 24 39.996094 L 20.996094 39.996094 C 20.445312 39.996094 20 39.550781 20 38.996094 L 20 18.996094 C 20 18.445312 20.445312 17.996094 20.996094 17.996094 Z M 20.996094 17.996094 " fill="#ff947c"/>
     <path d="M 24.5 14.132812 C 26.589844 14.925781 27.484375 13.828125 27.484375 13.828125 L 30.125 39.695312 C 28.03125 38.902344 27.140625 40 27.140625 40 Z M 24.5 14.132812 " fill="#8bc8ff"/>
     <path d="M 28 20.667969 C 30.640625 18.925781 33.796875 19.113281 33.796875 19.113281 L 38.972656 38.433594 C 38.972656 38.433594 36.332031 40.175781 33.175781 39.984375 Z M 28 20.667969 " fill="#f9994c"/>
    </g>
   </g>
  </g>
 </g>
 <g>
  <g transform="translate(0,-1004.3622)">
   <path d="m 1,1043.3622 0,4 c 0,2.216 1.784,4 4,4 l 38,0 c 2.216,0 4,-1.784 4,-4 l 0,-4 c 0,2.216 -1.784,4 -4,4 l -38,0 c -2.216,0 -4,-1.784 -4,-4 z" opacity="0.1"/>
  </g>
 </g>
</svg>

<svg viewBox="0 0 48 48"><defs><linearGradient id="linearGradient3764" x1="1" x2="47" gradientUnits="userSpaceOnUse" gradientTransform="translate(-48.000001,0.00221467)"><stop stop-color="#896372" stop-opacity="1"/><stop offset="1" stop-color="#946b7b" stop-opacity="1"/></linearGradient><clipPath id="clipPath-492608100"><g transform="translate(0,-1004.3622)"><rect rx="4" y="1005.36" x="1" height="46" width="46" fill="#1890d0"/></g></clipPath><clipPath id="clipPath-522739390"><g transform="translate(0,-1004.3622)"><rect rx="4" y="1005.36" x="1" height="46" width="46" fill="#1890d0"/></g></clipPath></defs><g><path d="m 1 43 l 0 0.25 c 0 2.216 1.784 4 4 4 l 38 0 c 2.216 0 4 -1.784 4 -4 l 0 -0.25 c 0 2.216 -1.784 4 -4 4 l -38 0 c -2.216 0 -4 -1.784 -4 -4 z m 0 0.5 l 0 0.5 c 0 2.216 1.784 4 4 4 l 38 0 c 2.216 0 4 -1.784 4 -4 l 0 -0.5 c 0 2.216 -1.784 4 -4 4 l -38 0 c -2.216 0 -4 -1.784 -4 -4 z" opacity="0.02"/><path d="m 1 43.25 l 0 0.25 c 0 2.216 1.784 4 4 4 l 38 0 c 2.216 0 4 -1.784 4 -4 l 0 -0.25 c 0 2.216 -1.784 4 -4 4 l -38 0 c -2.216 0 -4 -1.784 -4 -4 z" opacity="0.05"/><path d="m 1 43 l 0 0.25 c 0 2.216 1.784 4 4 4 l 38 0 c 2.216 0 4 -1.784 4 -4 l 0 -0.25 c 0 2.216 -1.784 4 -4 4 l -38 0 c -2.216 0 -4 -1.784 -4 -4 z" opacity="0.1"/></g><g><rect width="46" height="46" x="-47" y="1" rx="4" transform="matrix(0,-1,1,0,0,0)" fill="url(#linearGradient3764)" fill-opacity="1"/></g><g><g clip-path="url(#clipPath-492608100)"><g opacity="0.1"><!-- color: #946b7b --><g><path d="M 11.6875 8 C 10.75 8 10 8.75 10 9.6875 L 10 15 L 18 15 L 18 9.6875 C 18 8.75 17.25 8 16.3125 8 Z M 10 16 L 10 32 L 18 32 L 18 16 Z M 10 33 L 10 38.3125 C 10 39.25 10.75 40 11.6875 40 L 16.3125 40 C 17.25 40 18 39.25 18 38.3125 L 18 33 Z M 10 33 " fill="#000"/><path d="m 20.996 17.996 l 3 0 c 0.551 0 0.996 0.449 0.996 1 l 0 20 c 0 0.555 -0.445 1 -0.996 1 l -3 0 c -0.551 0 -0.996 -0.445 -0.996 -1 l 0 -20 c 0 -0.551 0.445 -1 0.996 -1 m 0 0" fill="#000"/><path d="m 24.5 14.13 c 2.09 0.793 2.984 -0.305 2.984 -0.305 l 2.641 25.867 c -2.094 -0.793 -2.984 0.305 -2.984 0.305 m -2.641 -25.867" fill="#000"/><path d="m 28 20.668 c 2.641 -1.742 5.797 -1.555 5.797 -1.555 l 5.176 19.32 c 0 0 -2.641 1.742 -5.797 1.551 m -5.176 -19.316" fill="#000"/></g></g></g></g><g><g clip-path="url(#clipPath-522739390)"><g transform="translate(0,-1)"><!-- color: #946b7b --><g><path d="M 11.6875 8 C 10.75 8 10 8.75 10 9.6875 L 10 15 L 18 15 L 18 9.6875 C 18 8.75 17.25 8 16.3125 8 Z M 10 16 L 10 32 L 18 32 L 18 16 Z M 10 33 L 10 38.3125 C 10 39.25 10.75 40 11.6875 40 L 16.3125 40 C 17.25 40 18 39.25 18 38.3125 L 18 33 Z M 10 33 " fill="#fff472"/><path d="m 20.996 17.996 l 3 0 c 0.551 0 0.996 0.449 0.996 1 l 0 20 c 0 0.555 -0.445 1 -0.996 1 l -3 0 c -0.551 0 -0.996 -0.445 -0.996 -1 l 0 -20 c 0 -0.551 0.445 -1 0.996 -1 m 0 0" fill="#ff947c"/><path d="m 24.5 14.13 c 2.09 0.793 2.984 -0.305 2.984 -0.305 l 2.641 25.867 c -2.094 -0.793 -2.984 0.305 -2.984 0.305 m -2.641 -25.867" fill="#8bc8ff"/><path d="m 28 20.668 c 2.641 -1.742 5.797 -1.555 5.797 -1.555 l 5.176 19.32 c 0 0 -2.641 1.742 -5.797 1.551 m -5.176 -19.316" fill="#f9994c"/></g></g></g></g><g><g transform="translate(0,-1004.3622)"><path d="m 1 1043.36 0 4 c 0 2.216 1.784 4 4 4 l 38 0 c 2.216 0 4 -1.784 4 -4 l 0 -4 c 0 2.216 -1.784 4 -4 4 l -38 0 c -2.216 0 -4 -1.784 -4 -4 z" opacity="0.1"/></g></g></svg>
